cc-by-sa/knowledge/modules/using_type/lessons/from_type_to_logotype/images/18_luna.svg

<svg xmlns="http://www.w3.org/2000/svg" width="1920" height="1080" fill="none"><g clip-path="url(#a)"><path fill="#1A73E8" d="M1585.61 803V699.592H240V803h1345.61ZM240 659.364V278h103.5v283.293h154.217v98.071H240ZM1213.96 278v381.364h-86.08L990.064 459.212h-2.561v200.152h-103.5V278h88.126l135.261 199.647h3.08V278h103.5-.01ZM1341.53 659.364h-103.5L1364.18 278h103.49l-126.14 381.364Z"/><path fill="#1A73E8" d="M1528.03 659.364h103.5L1505.38 278h-103.5l126.15 381.364Z"/><path fill="#1A73E8" d="M1575.5 802.979H1679l-126.15-381.364h-103.5l126.15 381.364ZM1466.82 381.408V278h-64.06v103.408h64.06ZM743.833 278.01v221.377c0 33.858-27.567 61.4-61.455 61.4-33.889 0-61.456-27.542-61.456-61.4V278.01H517.654v221.377c0 90.89 73.753 164.577 164.724 164.577 90.97 0 164.723-73.687 164.723-164.577V278.01H743.833ZM1435.44 630.768c28.71 0 51.98-23.247 51.98-51.925 0-28.677-23.27-51.925-51.98-51.925-28.7 0-51.97 23.248-51.97 51.925 0 28.678 23.27 51.925 51.97 51.925Z"/><path fill="#F3F7FE" d="M1492.21 604.111c14.03 0 25.41-11.365 25.41-25.384s-11.38-25.383-25.41-25.383-25.41 11.364-25.41 25.383c0 14.019 11.38 25.384 25.41 25.384Z"/></g><defs><clipPath id="a"><path fill="#fff" d="M240 278h1439v525H240z"/></clipPath></defs></svg>

<svg width="1920" height="1080" viewBox="0 0 1920 1080" fill="none" xmlns="http://www.w3.org/2000/svg">
<g clip-path="url(#clip0_3303_15597)">
<path d="M1585.61 803V699.592L240 699.592V803L1585.61 803Z" fill="#1A73E8"/>
<path d="M240 659.364V278H343.5V561.293H497.717V659.364H240Z" fill="#1A73E8"/>
<path d="M1213.96 278V659.364H1127.88L990.064 459.212H987.503V659.364H884.003V278H972.129L1107.39 477.647H1110.47V278H1213.97H1213.96Z" fill="#1A73E8"/>
<path d="M1341.53 659.364H1238.03L1364.18 278H1467.67L1341.53 659.364Z" fill="#1A73E8"/>
<path d="M1528.03 659.364H1631.53L1505.38 278H1401.88L1528.03 659.364Z" fill="#1A73E8"/>
<path d="M1575.5 802.979H1679L1552.85 421.615H1449.35L1575.5 802.979Z" fill="#1A73E8"/>
<path d="M1466.82 381.408V278H1402.76V381.408H1466.82Z" fill="#1A73E8"/>
<path d="M743.833 278.01V499.387C743.833 533.245 716.266 560.787 682.378 560.787C648.489 560.787 620.922 533.245 620.922 499.387V278.01H517.654V499.387C517.654 590.277 591.407 663.964 682.378 663.964C773.348 663.964 847.101 590.277 847.101 499.387V278.01H743.833Z" fill="#1A73E8"/>
<path d="M1435.44 630.768C1464.15 630.768 1487.42 607.521 1487.42 578.843C1487.42 550.166 1464.15 526.918 1435.44 526.918C1406.74 526.918 1383.47 550.166 1383.47 578.843C1383.47 607.521 1406.74 630.768 1435.44 630.768Z" fill="#1A73E8"/>
<path d="M1492.21 604.111C1506.24 604.111 1517.62 592.746 1517.62 578.727C1517.62 564.708 1506.24 553.344 1492.21 553.344C1478.18 553.344 1466.8 564.708 1466.8 578.727C1466.8 592.746 1478.18 604.111 1492.21 604.111Z" fill="#F3F7FE"/>
</g>
<defs>
<clipPath id="clip0_3303_15597">
<rect width="1439" height="525" fill="white" transform="translate(240 278)"/>
</clipPath>
</defs>
</svg>
